X:19
T:The Goose & The Gander
C:Corwin Zekley
L:1/8
M:4/4
K:G
"G" DG (3GGG"F" =FAdA |"C" EGcG EDCE |"G" DG (3GGG"Dm" =FAdA |"Am" EGAB"Am" c2 Bc |$ %4
"G" d2 dc Bcde |"Dm" =fA (3AAA AG=FA |"G" DG (3GGG"Dm" =FAde |1"F" =fcA=F"G" G2 GF :|2 %8
"F" =fcA=F"G" GABc ||$"G" d2 dc Bcde |"F" =fA (3AAA AG=FA |"G" DGGD"Dm" =FFDC | %12
"Bb" _B,CD=F"C" E2 DC |$"G" DGdB c"F"A=FD |"G" GBgd"F" =fcA=F |"G" DG (3GGG"Dm" =FAde |1 %16
"F" =fcA=F"G" GABc :|2"F" =fcA=F"G" G4 |] %18

